src/topics/icons/aws-mobilehub.svg

<svg height="280" preserveAspectRatio="xMidYMid" viewBox="0 0 256 280" width="256" xmlns="http://www.w3.org/2000/svg" xmlns:xlink="http://www.w3.org/1999/xlink"><linearGradient id="a" x1="-2.58736%" x2="97.694663%" y1="59.83163%" y2="41.181022%"><stop offset="0" stop-color="#f7962f" stop-opacity=".96"/><stop offset=".3563" stop-color="#d64626" stop-opacity=".96"/><stop offset=".4519" stop-color="#d04730" stop-opacity=".9659"/><stop offset=".6116" stop-color="#bf4949" stop-opacity=".9759"/><stop offset=".8144" stop-color="#a44c73" stop-opacity=".9885"/><stop offset="1" stop-color="#87509f"/></linearGradient><path d="m170.422148 31.5703265 46.789973 26.7779462v20.0032425l11.636364 6.2836363v59.1903035l-11.636364 6.283636v21.333333l19.39394 10.472728 19.393939-10.860607v-20.945454l-19.393939-10.472727v-50.8121216l19.393939-10.860606v-20.5575758l-19.393939-10.8606061-12.554161 6.7792469-53.385233-30.55242v-11.9116753l-17.454546-10.8606061-17.454545 10.4727273v21.3333333l17.454545 10.4727273z" fill="#ad688a"/><path d="m23.2727273 86.729697v55.001212l15.5151515 8.378182v21.333333l-19.3939394 10.472728-19.3939394-10.860607v-20.945454l11.6363636-6.283636v-59.345455l-11.6363636-6.5163636v-20.5575758l19.3939394-10.8606061 13.1019121 7.0750326 45.0799061-25.7992734v-16.9606076l19.3939394-10.8606061 19.393939 10.4727273v21.3333333l-19.393939 10.4727273-14.6769824-8.2191101-43.5048358 24.8978591v19.3939783z" fill="#f58435"/><path d="m145.842424 250.264535 46.802252-26.137645 15.646233 8.988262 18.230303-10.084849.387879-21.333333-18.230303-10.860606-18.618182 10.472727v15.37532l-49.591588 27.695405-12.856897-7.385877-16.686106 9.585636-44.9329333-26.555787.334191-18.714697-18.230303-10.472727-18.6181818 10.472727v21.333333l18.230303 10.472728 13.0100673-7.197059 48.6626598 28.76009v14.121817l18.230303 10.472727 18.230303-10.472727z" fill="#df5343"/><path d="m58.569697 91.1515152v80.6787878l69.042424 39.563636 67.878788-38.4 1.163636-80.6787875-68.654545-40.3393939z" fill="url(#a)"/><path d="m127.224242 185.793939-46.9333329-27.151515.3878788-54.690909 47.3212121-26.7636362 46.545455 27.5393942-.775758 54.690909zm-42.2787875-29.866666 42.2787875 24.436363 41.503031-23.660606.775757-49.260606-41.890909-24.4363634-42.2787877 23.6606064z" fill="#fff"/></svg>

<?xml version="1.0" encoding="UTF-8" standalone="no"?>
<svg width="256px" height="280px" viewBox="0 0 256 280" version="1.1" xmlns="http://www.w3.org/2000/svg" xmlns:xlink="http://www.w3.org/1999/xlink" preserveAspectRatio="xMidYMid">
    <defs>
        <linearGradient x1="-2.58735955%" y1="59.8316302%" x2="97.6946629%" y2="41.1810219%" id="linearGradient-1">
            <stop stop-color="#F7962F" stop-opacity="0.96" offset="0%"></stop>
            <stop stop-color="#D64626" stop-opacity="0.96" offset="35.63%"></stop>
            <stop stop-color="#D04730" stop-opacity="0.9659" offset="45.19%"></stop>
            <stop stop-color="#BF4949" stop-opacity="0.9759" offset="61.16%"></stop>
            <stop stop-color="#A44C73" stop-opacity="0.9885" offset="81.44%"></stop>
            <stop stop-color="#87509F" offset="100%"></stop>
        </linearGradient>
    </defs>
	<g>
		<path d="M170.422148,31.5703265 L217.212121,58.3482727 L217.212121,78.3515152 L228.848485,84.6351515 L228.848485,143.825455 L217.212121,150.109091 L217.212121,171.442424 L236.606061,181.915152 L256,171.054545 L256,150.109091 L236.606061,139.636364 L236.606061,88.8242424 L256,77.9636364 L256,57.4060606 L236.606061,46.5454545 L224.0519,53.3247014 L170.666667,22.7722814 L170.666667,10.8606061 L153.212121,0 L135.757576,10.4727273 L135.757576,31.8060606 L153.212121,42.2787879 L170.422148,31.5703265 Z" fill="#AD688A"></path>
		<path d="M23.2727273,86.729697 L23.2727273,141.730909 L38.7878788,150.109091 L38.7878788,171.442424 L19.3939394,181.915152 L0,171.054545 L0,150.109091 L11.6363636,143.825455 L11.6363636,84.48 L0,77.9636364 L0,57.4060606 L19.3939394,46.5454545 L32.4958515,53.6204871 L77.5757576,27.8212137 L77.5757576,10.8606061 L96.969697,0 L116.363636,10.4727273 L116.363636,31.8060606 L96.969697,42.2787879 L82.2927146,34.0596778 L38.7878788,58.9575369 L38.7878788,78.3515152 L23.2727273,86.729697 Z" fill="#F58435"></path>
		<path d="M145.842424,250.264535 L192.644676,224.12689 L208.290909,233.115152 L226.521212,223.030303 L226.909091,201.69697 L208.678788,190.836364 L190.060606,201.309091 L190.060606,216.684411 L140.469018,244.379816 L127.612121,236.993939 L110.926015,246.579575 L65.9930817,220.023788 L66.3272727,201.309091 L48.0969697,190.836364 L29.4787879,201.309091 L29.4787879,222.642424 L47.7090909,233.115152 L60.7191582,225.918093 L109.381818,254.678183 L109.381818,268.8 L127.612121,279.272727 L145.842424,268.8 L145.842424,250.264535 Z" fill="#DF5343"></path>
		<path d="M58.569697,91.1515152 L58.569697,171.830303 L127.612121,211.393939 L195.490909,172.993939 L196.654545,92.3151515 L128,51.9757576 L58.569697,91.1515152 Z" fill="url(#linearGradient-1)"></path>
		<path d="M127.224242,185.793939 L80.2909091,158.642424 L80.6787879,103.951515 L128,77.1878788 L174.545455,104.727273 L173.769697,159.418182 L127.224242,185.793939 L127.224242,185.793939 Z M84.9454545,155.927273 L127.224242,180.363636 L168.727273,156.70303 L169.50303,107.442424 L127.612121,83.0060606 L85.3333333,106.666667 L84.9454545,155.927273 L84.9454545,155.927273 Z" fill="#FFFFFF"></path>
	</g>
</svg>
